!!!COM: Mozart, Wolfgang Amadeus
!!!OTL: Musikalische Würfelspiele, Kontre-Tänze
!!!SCA: K<sup>6</sup> Anh. C30.01 (K<sup>3</sup> Anh. 294d)
**kern	**kern
*staff2	*staff2
*clefF4	*clefG2
*M2/4	*M2/4
*MM110	*MM110
*>[A,A1,A,A2,B]	*>[A,A1,A,A2,B]
*>norep[A,A2,B]	*>norep[A,A2,B]
*>A	*>A
=105	=105
4C	16cc
.	16b
.	16cc
.	16dd
4C	16ee
.	16dd
.	16ee
.	16ff
=150	=150
16C	8gg
16E	.
16G	8ee
16E	.
4C	16cc
.	16ee
.	16gg
.	16ee
=112	=112
4G	8ff
.	8dd
4GG	8b
.	8g
=163	=163
4C	16cc
.	16b
.	16cc
.	16dd
4C	8cc
.	8cc
=77	=77
4D	8d
.	16f#
.	16a
4D	8dd
.	8ff#
=140	=140
16D	8gg
16B	.
16G	4dd
16B	.
16D	.
16B	.
16G	8b
16B	.
=143	=143
4C	8ee
.	8cc
4D	8a
.	8f#
=130	=130
*>A1	*>A1
4GG	4g 4b 4gg
16G	4r
16F	.
16E	.
16D	.
=130:|!	=130:|!
*>A2	*>A2
4GG	4g 4b 4gg
16GG	4r
16AA	.
16BB	.
16C#	.
=116||	=116||
*>B	*>B
8D	8dd
16C#	4ff#
16D	.
16Cn	.
16D	.
16C	8aa
16D	.
=91	=91
16BB	4gg
16D	.
16G	.
16D	.
16BB	8bb
16GG	.
16AA	8r
16BB	.
=26	=26
4C	8ee
.	8cc
4C	8gg
.	8ee
=107	=107
16BB	8dd
16D	.
16G	4b
16D	.
16G	.
16F	.
16E	8g
16D	.
=94	=94
16C	8cc
16E	.
16G	8ee
16E	.
16C	8gg
16E	.
16G	8ee
16E	.
=101	=101
16C	8gg
16G	.
16E	4ee
16G	.
16C	.
16G	.
16E	8cc
16G	.
=154	=154
4G	8ff
.	8dd
4GG	8cc
.	8b
=65	=65
4C	8cc
.	8cc
4CC	4cc
==	==
*-	*-
